X:1
T:O God, my God, wherefore dost thou (Ps 22)
T:William Cobbolt
T:Source : The Whole Book of Psalms---London---Musical Antquarian Society---1844. First publication : London---Th.Est(e)---1592. Editor : André Vierendeels (11/09/16). 
T:O God, my God, wherefore dost thou (Ps 22) 
T:©
T:©
T:©
C:William Cobbolt
Z:©
%%score [ 1 2 3 4 ]
L:1/8
Q:1/4=120
M:4/4
K:F
V:1 treble nm="Soprano" snm="S"
V:2 treble nm="Alto" snm="A"
V:3 treble-8 nm="Tenor" snm="T"
V:4 bass nm="Bass" snm="B"
V:1
 A4 B2 c2 | c4 A4 | B2 d2 c4 || c2 _e4 c2 | d2 cB A4 || A4 B2 c2 | d4 c2 c2- | c2 =B2 c4 || %8
w: O God, my|God where-|fore dost thou,|for- sake me|ut- ter- * ly,|and help it|not when I|_ do make,|
 c4 _e2 c2 | c6 B2 |[M:2/4] A4 ||[M:4/4] c6 f2- | fe d4 ^c2 | d2 B2 A4 || A4 d3 e | f2 f2 e4 || %16
w: my great com-|^laint and|cry,|to thee|_ my God, e'en|all day long,|I do both|cry and call,|
 c4 c2 c2 | c3 c f2 d2 |[M:2/4] e4 || c4 |[M:4/4] c2 c2 d4 | c3 B !fermata!A4 |] %22
w: I cease not|all the night and|yet,|thou|hea- rest not|at _ all.|
V:2
 C4 D2 E2 | F4 F4 | D2 F2 F4 || A2 G4 F2 | F2 E2 F4 || F4 F2 G2 | B4 A2 G2- | GF D2 E4 || %8
w: O God, my|God where-|fore dost thou,|for- sake me|ut- er- ly,|and help it|not when I-|* * do make,|
 F2- A2 G2 F2- | F2 ED E4 |[M:2/4] F4 ||[M:4/4] A4 G2 B2 | A2 FG A4 | F4 F4 || F4 F2 G2 | %15
w: my _ great com-|* plaint _ and|cry,|to thee my|God, e'en _ all|day long,|I do both|
 A2 B2 G4 || F4 F2 E2 | FF A4 G2 |[M:2/4] G4 || F4 |[M:4/4] G2 C2 G2 F2- | F2 E2 !fermata!F4 |] %22
w: cry and call,|I cease not|all the night and|yet|thou|hea- rest not at|_ _ all|
V:3
 F4 F2 G2 | A4 c4 | B2 B2 A4 || F2 B4 A2 | G2 G2 F4 || c4 d2 e2 | f4 e4 | d2 d2 c4 || A4 B2 A2 | %9
w: O God, my|God where-|fore dost thou,|for- sake me|ut- ter- ly,|and help it|not when|I do make,|my great com-|
 G4 G4 |[M:2/4] F4 ||[M:4/4] f4 e2 d2 | c2 d2 e4 | d4 c4 || d4 A2 B2 | c2 d2 c4 || A4 A2 G2 | %17
w: plaint and|cry,|to thee my|God, e'en all|day long,|I do both|cry and call,|I cease not|
 A2 F2 A2 =B2 |[M:2/4] c4 || A4 |[M:4/4] G2 A2 B4 | G4 !fermata!F4 |] %22
w: all the night and|yet|thou|hea- rest not|at all.|
V:4
 F,4 D,2 C,2 | F,4 F,4 | G,2 D,2 F,4 || F,2 _E,4 F,2 | B,,2 C,2 F,4 || F,4 D,2 C,2 | B,,4 C,4 | %7
w: O God, my|God where-|fore dost thou,|for- sake me|ut- ter- ly,|and help it|nit when|
 G,2 G,2 C,4 || F,4 _E,2 F,2 | C,4 C,4 |[M:2/4] F,4 ||[M:4/4] F,4 C,2 B,,2 | F,2 B,2 A,4 | %13
w: I do make,|my great com-|plaint and|cry,|to thee my|God, e'en all|
 B,4 F,4 || D,4 D,2 G,2 | F,2 B,,2 C,4 || F,4 F,2 C,2 | F,2 F,2 D,2 G,2 |[M:2/4] C,4 || F,4 | %20
w: day long,|I do both|cry and call,|I cease not|all the nicht and|yet|thou|
[M:4/4] E,2 F,2 B,,4 | C,4 !fermata!F,4 |] %22
w: hea- rest not|at all.|

